X:234
T: Gesellenlied (3-37), S. 115
N: P1009
O: Lothringen
S: PINCK, Louis: Verklingende Weisen, Bd3, Metz 1933]
R: Arbeit, Liebe]
M: 4/4
L: 1/8
K: G
D2 | G3AB2A2 | G2F2G2
AB | c2B2A2G2 | A4z2
GA | B2B2B2A2 | B3cd2z2
e2d2c2B2 | A3GA2
dc | B2B2AGA2 | G4
A4 | B2dcB2A2 | G4
A4 | B2d2dcc2 | B4z2

